movie-open-star.svg

<svg fill="currentColor" viewBox="0 0 24 24"><path d="m19.65 6.5-2.74-3.54 3.93-.78.78 3.92zm-2.94.57-2.74-3.53-1.97.39 2.75 3.53zM19 13c1.1 0 2.12.3 3 .81V10H2v10a2 2 0 0 0 2 2h9.81c-.51-.88-.81-1.9-.81-3 0-3.31 2.69-6 6-6M4.16 5.5l-.98.19a2.01 2.01 0 0 0-1.57 2.35L2 10l4.9-.97zm7.65 2.55L9.07 4.5l-1.97.41 2.75 3.53zM23 17.89l-2.89-.25L19 15l-1.13 2.64-2.87.25 2.18 1.88-.68 2.81 2.5-1.49 2.45 1.49-.65-2.81z"/></svg>

<svg  viewBox="0 0 24 24" fill="currentColor"><path  d="M19.65 6.5L16.91 2.96L20.84 2.18L21.62 6.1L19.65 6.5M16.71 7.07L13.97 3.54L12 3.93L14.75 7.46L16.71 7.07M19 13C20.1 13 21.12 13.3 22 13.81V10H2V20C2 21.11 2.9 22 4 22H13.81C13.3 21.12 13 20.1 13 19C13 15.69 15.69 13 19 13M4.16 5.5L3.18 5.69C2.1 5.91 1.4 6.96 1.61 8.04L2 10L6.9 9.03L4.16 5.5M11.81 8.05L9.07 4.5L7.1 4.91L9.85 8.44L11.81 8.05M23 17.89L20.11 17.64L19 15L17.87 17.64L15 17.89L17.18 19.77L16.5 22.58L19 21.09L21.45 22.58L20.8 19.77L23 17.89Z"/></svg>
